assets/icons/telegram.svg

<svg xmlns="http://www.w3.org/2000/svg" width="32" height="32" fill="none"><path fill="#282A2E" d="M16 0C7.168 0 0 7.168 0 16s7.168 16 16 16 16-7.168 16-16S24.832 0 16 0Zm7.424 10.88c-.24 2.528-1.28 8.672-1.808 11.504-.224 1.2-.672 1.6-1.088 1.648-.928.08-1.632-.608-2.528-1.2-1.408-.928-2.208-1.504-3.568-2.4-1.584-1.04-.56-1.616.352-2.544.24-.24 4.336-3.968 4.416-4.304a.32.32 0 0 0-.08-.288c-.096-.08-.224-.048-.336-.032-.144.032-2.384 1.52-6.752 4.464-.64.432-1.216.656-1.728.64-.576-.016-1.664-.32-2.48-.592-1.008-.32-1.792-.496-1.728-1.056.032-.288.432-.576 1.184-.88 4.672-2.032 7.776-3.376 9.328-4.016 4.448-1.856 5.36-2.176 5.968-2.176.128 0 .432.032.624.192.16.128.208.304.224.432-.016.096.016.384 0 .608Z"/></svg>

<svg width="32" height="32" viewBox="0 0 32 32" fill="none" xmlns="http://www.w3.org/2000/svg">
    <path d="M16 0C7.168 0 0 7.168 0 16C0 24.832 7.168 32 16 32C24.832 32 32 24.832 32 16C32 7.168 24.832 0 16 0ZM23.424 10.88C23.184 13.408 22.144 19.552 21.616 22.384C21.392 23.584 20.944 23.984 20.528 24.032C19.6 24.112 18.896 23.424 18 22.832C16.592 21.904 15.792 21.328 14.432 20.432C12.848 19.392 13.872 18.816 14.784 17.888C15.024 17.648 19.12 13.92 19.2 13.584C19.2111 13.5331 19.2096 13.4803 19.1957 13.4301C19.1818 13.3799 19.1558 13.3339 19.12 13.296C19.024 13.216 18.896 13.248 18.784 13.264C18.64 13.296 16.4 14.784 12.032 17.728C11.392 18.16 10.816 18.384 10.304 18.368C9.728 18.352 8.64 18.048 7.824 17.776C6.816 17.456 6.032 17.28 6.096 16.72C6.128 16.432 6.528 16.144 7.28 15.84C11.952 13.808 15.056 12.464 16.608 11.824C21.056 9.968 21.968 9.648 22.576 9.648C22.704 9.648 23.008 9.68 23.2 9.84C23.36 9.968 23.408 10.144 23.424 10.272C23.408 10.368 23.44 10.656 23.424 10.88Z" fill="#282A2E"/>
</svg>
